X: 1082
T: Sir James Baird's Strathspey
%R: strathspey
B: Niel Gow & Sons "A Collection of Strathspey Reels, etc." v.1 p.8 #2
Z: 2022 John Chambers <jc:trillian.mit.edu>
M: C
L: 1/8
K: A
% - - - - - - - - - -
V: 1 staves=2
c/B/ |\
AEE>C TE2Ec/B/ | AFF>E TF2F>A |\
E>FAA TB>ce>f | e<cB>A TF2Fc/B/ ||\
AE (E/F/A/).C/ TE2 Ec/B/ |
AF (F/A/F/).E/ TF2FA |\
E>FAA B>cd>e | {f}e.d/.c/ {d}cB/A/ TF2F |][| c/d/ |\
e>fec e2e>a | f>g f/g/a/g/ f2-f>a |\
e<cTB>A A>BcB |
A<F-F>E [E2C2] [EC]c/d/ ||\
e>f {f}ed/c/ e2 ea/g/ | (f/e/f/).g/ (f/g/).a/.g/ Tf2 fa/f/ |\
{f}e.d/.c/ {d}c.B/.A/ A>BcA | (B/c/).d/.f/ (e/c/)T.B/.A/ F2F |]
% - - - - - - - - - -
% Voice 2 preserves the staff layout in the book.
V: 2 clef=bass middle=d
z | A2A2 A2A2 | a2a2 d2d2 | A2A2 e2e2 | A2A2 d2d2 || A2A2 A2A2 |
A2A2 d2d2 | A2A2 e2e2 | A2A2 d2d |][| z | a2a2 a2a2 | d2d2 d2d2 | a2a2 A2A2 |
d2d2 A2A2 || a2a2 a2a2 | d2d2 d2d2 | a2a2 A2A2 | a2a2 d2d |]
